icons/assets/dark/file.svg

<svg width="48" height="48" viewBox="0 0 48 48" fill="none" xmlns="http://www.w3.org/2000/svg">
<path d="M19.6185 16H28.3815M19.6185 24H28.3815M19.6185 32H28.3815M11.7966 40L11.7966 8L36.2034 8L36.0781 39.9755L11.7966 40Z" stroke="#62646A" stroke-width="3.5" stroke-linecap="round" stroke-linejoin="round"/>
</svg>

<svg width="48" height="48" fill="none" xmlns="http://www.w3.org/2000/svg"><path d="M19.619 16h8.762m-8.762 8h8.762m-8.762 8h8.762m-16.584 8V8h24.406l-.125 31.975L11.797 40z" stroke="#62646A" stroke-width="3.5" stroke-linecap="round" stroke-linejoin="round"/></svg>
